svgs/infinity_for_reddit.svg

<svg width="192" height="192" viewBox="0 0 192 192" fill="none" xmlns="http://www.w3.org/2000/svg">
<path fill-rule="evenodd" clip-rule="evenodd" d="M95.2394 124.981C95.4284 124.982 95.6177 124.983 95.8073 124.983C107.521 124.983 118.274 122.64 125.951 120.391C129.829 119.255 133.019 118.115 135.274 117.243C136.404 116.806 137.305 116.435 137.947 116.161C138.268 116.025 138.525 115.913 138.713 115.829C138.808 115.787 138.885 115.752 138.945 115.725L139.022 115.691L139.05 115.678L139.067 115.67C139.069 115.669 139.07 115.669 138.257 113.899L138.258 113.898L139.072 115.668C140.818 114.864 142.307 113.674 143.456 112.226C148.229 114.632 152.409 117.077 155.845 119.252C153.194 119.834 150.177 120.455 146.846 121.077C133.531 123.563 115.309 126.036 95.5798 126.036C75.8535 126.036 57.8454 123.563 44.7513 121.08C41.8827 120.536 39.2543 119.993 36.9001 119.476C40.5162 117.321 44.8047 114.902 49.5088 112.512C50.5589 113.755 51.8696 114.794 53.3873 115.539L53.552 115.203L53.5545 115.205C53.3909 115.54 53.3917 115.541 53.3925 115.541L53.3982 115.544L53.4107 115.55L53.4404 115.565L53.5185 115.602C53.5788 115.631 53.6556 115.668 53.7484 115.712C53.934 115.799 54.1841 115.916 54.4954 116.056C54.6923 116.145 54.9138 116.244 55.1592 116.351C55.8341 116.768 56.5479 117.133 57.2959 117.442C62.588 119.621 77.2659 124.983 94.6848 124.983C94.8699 124.983 95.0548 124.982 95.2394 124.981ZM46.9535 100.379C47.0928 98.8243 47.3007 96.8654 47.6089 94.6097C48.3748 89.0033 49.7905 81.3336 52.4194 73.3948C57.3619 58.4698 68.4304 37.5455 92.5323 34.6888C106.115 33.0788 117.119 37.3098 125.292 44.8877C133.018 52.0513 137.61 61.6093 140.432 70.1289C143.3 78.7851 144.68 87.4104 145.36 93.7256C145.623 96.1714 145.787 98.3205 145.888 100.054C154.293 104.065 161.206 108.318 166.04 111.583C168.481 113.233 170.401 114.637 171.724 115.64C172.387 116.141 172.9 116.543 173.256 116.826C175.218 118.386 176.413 120.538 175.885 123.118C175.223 126.352 172.735 127.4 170.053 128.136C169 128.424 167.467 128.832 165.507 129.319C163.783 129.747 161.73 130.236 159.382 130.76C159.376 130.917 159.368 131.096 159.357 131.294C159.316 132.025 159.233 133.034 159.064 134.229C158.73 136.581 158.036 139.83 156.549 143.123C155.058 146.425 152.662 150.001 148.814 152.625C144.887 155.302 139.92 156.663 133.925 156.24C126.963 155.75 122.034 152.915 118.628 149.404C116.843 151.983 114.346 154.468 110.894 156.323C106.678 158.588 101.43 159.704 95.0415 159.316C84.9974 158.707 78.7125 154.111 74.9971 149.014C71.5819 152.703 66.5485 155.732 59.3306 156.24C53.336 156.663 48.3689 155.302 44.4417 152.625C40.5941 150.001 38.1976 146.425 36.7064 143.123C35.2194 139.83 34.5257 136.581 34.192 134.229C34.0227 133.034 33.9398 132.025 33.899 131.294C33.8953 131.228 33.8919 131.163 33.8889 131.1C30.9299 130.446 28.3908 129.833 26.3341 129.312C24.4114 128.824 22.9086 128.416 21.8768 128.126C19.1444 127.359 16.6177 126.226 16.0719 122.88C15.4541 119.094 17.6397 117.609 18.912 116.744C18.9899 116.691 19.0644 116.64 19.1347 116.592C19.5255 116.321 20.0935 115.931 20.822 115.441C22.2786 114.463 24.3799 113.084 26.9923 111.46C32.0281 108.329 39.0047 104.259 46.9535 100.379ZM46.2376 133.552C46.5036 134.992 46.941 136.63 47.643 138.184C48.5109 140.106 49.6751 141.669 51.2016 142.71C52.6486 143.696 54.8691 144.525 58.4875 144.27C63.9172 143.888 66.564 141.066 68.1138 138.105C68.3654 137.625 68.5851 137.142 68.7768 136.668C60.4547 135.838 52.838 134.718 46.2376 133.552ZM82.5712 137.705C82.8876 138.684 83.3477 139.798 84.0081 140.906C85.6973 143.739 88.869 146.92 95.7678 147.338C100.343 147.616 103.296 146.783 105.214 145.752C107.129 144.723 108.403 143.288 109.291 141.731C110.091 140.329 110.562 138.848 110.832 137.585C105.892 137.872 100.79 138.036 95.5798 138.036C91.1456 138.036 86.7986 137.917 82.5712 137.705ZM124.402 136.473C124.611 137.009 124.856 137.559 125.142 138.105C126.692 141.066 129.339 143.888 134.768 144.27C138.387 144.525 140.607 143.696 142.054 142.71C143.581 141.669 144.745 140.106 145.613 138.184C146.367 136.515 146.816 134.749 147.075 133.235C140.476 134.424 132.803 135.588 124.402 136.473ZM143.38 104.764C143.05 104.764 142.68 104.764 142.265 104.765L142.264 104.766L143.379 104.766L143.38 104.764ZM73.0543 58.9689C78.0749 52.5163 84.8382 47.6847 93.9448 46.6054C108.29 44.9051 117.504 51.8606 123.424 61.4979C115.678 55.3718 105.235 51.802 91.8493 53.0318C84.5213 53.7051 78.2885 55.8688 73.0543 58.9689ZM95.2394 112.981C79.6424 112.865 66.2664 107.998 61.031 105.811C60.4348 105.253 60.122 104.446 60.2196 103.585C60.4925 101.179 61.1627 96.8114 62.7484 91.8508C63.8727 88.3335 65.4572 84.5181 67.6868 80.8925C66.8365 80.6477 66.136 80.2149 65.7026 79.6724C65.3979 79.291 65.2251 78.8554 65.2251 78.3929C65.2251 76.9143 66.9904 75.7111 69.1896 75.6733C69.2251 75.6726 69.2608 75.6723 69.2965 75.6723C69.9999 75.6723 70.6616 75.7915 71.2389 76.0013C72.397 74.6525 73.674 73.3716 75.0822 72.1907C75.2323 72.0648 75.3838 71.94 75.5369 71.8165C79.9639 68.2433 85.6489 65.6521 92.9473 64.9815C103.501 64.0118 111.079 66.8171 116.519 71.3449C116.578 71.3945 116.638 71.4444 116.697 71.4944C118.234 72.7951 119.597 74.2338 120.808 75.763C121.142 75.7039 121.493 75.6723 121.854 75.6723L121.9 75.6725C124.127 75.6887 125.926 76.9005 125.926 78.3929C125.926 79.1232 125.495 79.7864 124.794 80.2751C124.574 80.4287 124.327 80.5651 124.058 80.6809C125.458 83.2206 126.548 85.8582 127.395 88.4252C129.489 94.7665 130.108 100.677 130.291 103.614C130.364 104.796 129.676 105.859 128.574 106.291C123.839 108.146 110.331 112.867 95.2394 112.981ZM85.1354 83.0047C85.1354 85.433 83.1669 87.4015 80.7386 87.4015C78.3104 87.4015 76.3419 85.433 76.3419 83.0047C76.3419 80.5764 78.3104 78.6079 80.7386 78.6079C83.1669 78.6079 85.1354 80.5764 85.1354 83.0047ZM111.819 86.1415C114.277 86.1415 116.269 84.1492 116.269 81.6916C116.269 79.234 114.277 77.2417 111.819 77.2417C109.362 77.2417 107.369 79.234 107.369 81.6916C107.369 84.1492 109.362 86.1415 111.819 86.1415ZM89.4659 93.2925C89.4011 91.6929 88.0839 90.416 86.4684 90.416C84.8115 90.416 83.4684 91.7592 83.4684 93.416C83.4684 96.5125 85.8985 98.5101 87.9857 99.5548C90.2514 100.689 93.1715 101.304 96.2332 101.304C99.2949 101.304 102.215 100.689 104.481 99.5548C106.568 98.5101 108.998 96.5125 108.998 93.416C108.998 91.7592 107.655 90.416 105.998 90.416C104.383 90.416 103.065 91.6929 103.001 93.2925C102.948 93.386 102.708 93.7323 101.795 94.1893C100.527 94.8242 98.5645 95.3036 96.2332 95.3036C93.9019 95.3036 91.9397 94.8242 90.6712 94.1893C89.7582 93.7323 89.5185 93.386 89.4659 93.2925Z" fill="black"/>
</svg>

<svg width="192" height="192" fill="none" xmlns="http://www.w3.org/2000/svg"><path fill-rule="evenodd" clip-rule="evenodd" d="m95.24 124.981.567.002c11.714 0 22.467-2.343 30.144-4.592a118.162 118.162 0 0 0 9.323-3.148 85.047 85.047 0 0 0 3.439-1.414l.232-.104.077-.034.028-.013.017-.008c.002-.001.003-.001-.81-1.771l.001-.001.814 1.77a11.995 11.995 0 0 0 4.384-3.442 146.858 146.858 0 0 1 12.389 7.026 292.031 292.031 0 0 1-8.999 1.825c-13.315 2.486-31.537 4.959-51.266 4.959-19.727 0-37.735-2.473-50.829-4.956a279.137 279.137 0 0 1-7.85-1.604 215.306 215.306 0 0 1 12.608-6.964 11.987 11.987 0 0 0 3.878 3.027l.165-.336.002.002a7.81 7.81 0 0 0-.162.336l.006.003.013.006.03.015.078.037.23.11a50.015 50.015 0 0 0 1.41.639c.675.417 1.389.782 2.137 1.091 5.292 2.179 19.97 7.541 37.389 7.541l.554-.002Zm-48.286-24.602c.139-1.555.347-3.514.655-5.77.766-5.606 2.181-13.275 4.81-21.214 4.943-14.925 16.011-35.85 40.113-38.706 13.583-1.61 24.587 2.62 32.76 10.199 7.726 7.163 12.318 16.721 15.14 25.24 2.868 8.657 4.248 17.282 4.928 23.598.263 2.445.427 4.594.528 6.328a157.812 157.812 0 0 1 20.152 11.529 129.78 129.78 0 0 1 5.684 4.057c.663.501 1.176.903 1.532 1.186 1.962 1.56 3.157 3.712 2.629 6.292-.662 3.234-3.15 4.282-5.832 5.018a200.76 200.76 0 0 1-4.546 1.183c-1.724.428-3.777.917-6.125 1.441a35.178 35.178 0 0 1-.318 3.469c-.334 2.352-1.028 5.601-2.515 8.894-1.491 3.302-3.887 6.878-7.735 9.502-3.927 2.677-8.894 4.038-14.889 3.615-6.962-.49-11.891-3.325-15.297-6.836a21.987 21.987 0 0 1-7.734 6.919c-4.216 2.265-9.464 3.381-15.853 2.993-10.044-.609-16.328-5.205-20.044-10.302-3.415 3.689-8.448 6.718-15.666 7.226-5.995.423-10.962-.938-14.89-3.615-3.847-2.624-6.243-6.2-7.735-9.502-1.487-3.293-2.18-6.542-2.514-8.894a34.964 34.964 0 0 1-.303-3.129 254.355 254.355 0 0 1-7.555-1.788 183.787 183.787 0 0 1-4.457-1.186c-2.733-.767-5.26-1.9-5.805-5.246-.618-3.786 1.568-5.271 2.84-6.136l.223-.152c.39-.271.958-.661 1.687-1.151a210.635 210.635 0 0 1 6.17-3.981c5.036-3.131 12.013-7.201 19.961-11.081Zm-.716 33.173c.266 1.44.703 3.078 1.405 4.632.868 1.922 2.032 3.485 3.559 4.526 1.447.986 3.667 1.815 7.285 1.56 5.43-.382 8.077-3.204 9.627-6.165a16.1 16.1 0 0 0 .663-1.437 302.7 302.7 0 0 1-22.54-3.116Zm36.333 4.153c.317.979.777 2.093 1.437 3.201 1.69 2.833 4.861 6.014 11.76 6.432 4.575.278 7.528-.555 9.446-1.586 1.915-1.029 3.189-2.464 4.077-4.021.8-1.402 1.271-2.883 1.541-4.146-4.94.287-10.042.451-15.252.451-4.434 0-8.781-.119-13.009-.331Zm41.831-1.232c.209.536.454 1.086.74 1.632 1.55 2.961 4.197 5.783 9.626 6.165 3.619.255 5.839-.574 7.286-1.56 1.527-1.041 2.691-2.604 3.559-4.526.754-1.669 1.203-3.435 1.462-4.949a313.724 313.724 0 0 1-22.673 3.238Zm18.978-31.709-1.115.001-.001.001h1.115l.001-.002ZM73.054 58.969c5.02-6.453 11.784-11.284 20.89-12.364 14.346-1.7 23.56 5.256 29.48 14.893-7.746-6.126-18.189-9.696-31.575-8.466-7.328.673-13.56 2.837-18.795 5.937ZM95.24 112.98c-15.597-.116-28.973-4.983-34.208-7.17a2.618 2.618 0 0 1-.811-2.226 62.667 62.667 0 0 1 2.528-11.734c1.125-3.517 2.71-7.333 4.939-10.959-.85-.244-1.551-.677-1.984-1.22-.305-.381-.478-.817-.478-1.28 0-1.478 1.765-2.68 3.965-2.719h.106c.704 0 1.366.118 1.943.328a33.115 33.115 0 0 1 4.298-4.184c4.427-3.574 10.112-6.165 17.41-6.835 10.554-.97 18.132 1.835 23.572 6.363l.178.15c1.537 1.3 2.9 2.739 4.111 4.268.334-.06.685-.09 1.046-.09h.046c2.227.016 4.026 1.227 4.026 2.72 0 .73-.431 1.393-1.132 1.882-.22.154-.467.29-.736.406 1.4 2.54 2.49 5.177 3.337 7.744 2.094 6.341 2.713 12.252 2.896 15.189a2.68 2.68 0 0 1-1.717 2.677c-4.735 1.855-18.243 6.576-33.335 6.69ZM85.135 83.005a4.397 4.397 0 1 1-8.793 0 4.397 4.397 0 0 1 8.793 0Zm26.684 3.136a4.45 4.45 0 1 0 0-8.899 4.45 4.45 0 0 0 0 8.9Zm-22.353 7.151a3 3 0 0 0-5.998.124c0 3.097 2.43 5.094 4.518 6.139 2.265 1.134 5.185 1.749 8.247 1.749 3.062 0 5.982-.615 8.248-1.75 2.087-1.044 4.517-3.041 4.517-6.138a3 3 0 0 0-5.997-.123c-.053.093-.293.44-1.206.896-1.268.635-3.23 1.115-5.562 1.115-2.331 0-4.293-.48-5.562-1.115-.913-.457-1.153-.803-1.205-.896Z" fill="#000"/></svg>
